X:1
T:Guenilles,  Les
T:Rags, The
S:From the playing of Clark Kessinger (W.Va.)
M:C|
L:1/8
R:Reel
N:M. Beaudoin played each part three times.
D:Philo Records - "Louis Beaudoin" (1973)
D: https://www.youtube.com/watch?v=HRhhNNiblxs
Z:Andrew Kuntz
K:D
Acdd fdfd|cdef gfgB|Aceg fdfd|efec d2d2|
Acdd fdfd|cdef gfg2|Aceg fdfd|1,2egec d2d2:|3egec d3||
|:a|a2ag fdfd|Acde gefg|abag fdfd|egec d3:|
|:f|gage fgfg/f/|edcB Acef|gage f2 fg/f/|egec d3:|

